symbols/web/person_pin/materialsymbolssharp/person_pin_wght200gradN25_48px.svg

<svg xmlns="http://www.w3.org/2000/svg" height="48" width="48"><path d="m24 43.1-5.15-5.15H8.05V6.05h31.9v31.9h-10.8Zm-14.45-8q2.85-2.7 6.5-4.325T24 29.15q4.3 0 7.95 1.625 3.65 1.625 6.5 4.325V7.55H9.55Zm14.5-10.5q2.5 0 4.225-1.7Q30 21.2 30 18.65q0-2.5-1.75-4.2-1.75-1.7-4.2-1.7-2.5 0-4.225 1.7-1.725 1.7-1.725 4.25 0 2.5 1.75 4.2 1.75 1.7 4.2 1.7Zm0-1.5q-1.85 0-3.15-1.275-1.3-1.275-1.3-3.175 0-1.85 1.3-3.125t3.15-1.275q1.85 0 3.125 1.275T28.45 18.7q0 1.85-1.3 3.125t-3.1 1.275ZM24 40.85l4.4-4.4h8.9v-.35q-2.95-2.8-6.3-4.125-3.35-1.325-7-1.325-3.6 0-6.975 1.325Q13.65 33.3 10.75 36v.45h8.85Zm0-19.55Z"/></svg>

<svg xmlns="http://www.w3.org/2000/svg" height="48" width="48"><path d="M24 43.1 18.85 37.95H8.05V6.05H39.95V37.95H29.15ZM9.55 35.1Q12.4 32.4 16.05 30.775Q19.7 29.15 24 29.15Q28.3 29.15 31.95 30.775Q35.6 32.4 38.45 35.1V7.55H9.55ZM24.05 24.6Q26.55 24.6 28.275 22.9Q30 21.2 30 18.65Q30 16.15 28.25 14.45Q26.5 12.75 24.05 12.75Q21.55 12.75 19.825 14.45Q18.1 16.15 18.1 18.7Q18.1 21.2 19.85 22.9Q21.6 24.6 24.05 24.6ZM24.05 23.1Q22.2 23.1 20.9 21.825Q19.6 20.55 19.6 18.65Q19.6 16.8 20.9 15.525Q22.2 14.25 24.05 14.25Q25.9 14.25 27.175 15.525Q28.45 16.8 28.45 18.7Q28.45 20.55 27.15 21.825Q25.85 23.1 24.05 23.1ZM24 40.85 28.4 36.45H37.3V36.1Q34.35 33.3 31 31.975Q27.65 30.65 24 30.65Q20.4 30.65 17.025 31.975Q13.65 33.3 10.75 36V36.45H19.6ZM24 21.3Q24 21.3 24 21.3Q24 21.3 24 21.3Q24 21.3 24 21.3Q24 21.3 24 21.3Z"/></svg>
